X:3
T:Liebeslieder-Walzer  CF 7-
%%MIDI program 21
R:waltz
M:3/4
L:1/4
K:C %%MIDI gchordon
"C"G3 | A2E | (G3 | G)G,E | "G7"D3 | G2D | "C"E2C | G,CE | G3 | "D7"A2c | \
("G"B3 |
B) GB | "D7"A2c | B2A | "G"G>GG |1 "G7"zGG :|2 "G"GzG/2A/2 || "G7"G.f.f | f/2e/2 d/2c/2 B/2A/2 |
"tr""C"A.G.G | \
"C".G!>!A>E | "G7"F.B.B | B/2c/2 B/2A/2 G/2F/2 | "C"E.c.c | c C/2E/2 G/2A/2 | "G7"G.f.f |
f/2e/2 d/2c/2 B/2A/2 | "tr""C"A.G.G | \
G2 G/2^G/2 | "F"A2 d/2c/2 | B(AB) | "C"c>cc | czd/2c/2 |: [K:F] !>!"C7"B!>!B B/2A/2 |
!>!G!>!G G/2F/2 | E/2F/2 GE | \
CzC ||"F"A3 | A2A | ("C7"G3 | G)GA | "Bb"B2d | "C7"d2c | ("F"A3 |
A)Ac | f3 | \
f2f | ("C7"e3 | e)GB | "Bb"d3 | "C7"e2d |1 "F"c3 | cCF :|2 "C7"c/2c/2cE | "F"Fzz |] 
% wz06046

